/* XPM */
static char *_8bf899b9329429fadbb4857a02ba5aeiEDincLye6bJBHre[] = {
/* columns rows colors chars-per-pixel */
"64 64 44 1 ",
"  c black",
". c #010000",
"X c #000100",
"o c #010101",
"O c #000200",
"+ c #000300",
"@ c #000002",
"# c #010002",
"$ c #000500",
"% c #000900",
"& c #000A00",
"* c #000C00",
"= c #000D00",
"- c #000E00",
"; c #000F00",
": c #001200",
"> c #001700",
", c #001900",
"< c #001D00",
"1 c #001E00",
"2 c #002300",
"3 c #002700",
"4 c #002800",
"5 c #002A00",
"6 c #002F00",
"7 c #003000",
"8 c #004100",
"9 c #39D73C",
"0 c #5FBD5D",
"q c #5DBE5D",
"w c #5EBE5D",
"e c #5EBD5F",
"r c #5FBE60",
"t c #64B964",
"y c #6CB46B",
"u c #6CB36D",
"i c #72AF73",
"p c #47CD4A",
"a c #51C651",
"s c #50C751",
"d c #51C653",
"f c #57C258",
"g c #58C15A",
"h c #5AC05A",
/* pixels */
"                                                                ",
"                                                                ",
"                                                                ",
"                                                                ",
"                                                                ",
"                                                                ",
"                                                                ",
"                                                                ",
"                                                                ",
"                                                                ",
"                                                                ",
"                                                                ",
"                                                                ",
"                                                                ",
"                                                                ",
"                                                                ",
"                                                                ",
"                                                                ",
"                                                                ",
"                        &------------------&                    ",
"                       &14343434343434343331&                   ",
"                       &yeeeeeeeeeeeeeeeehde-                   ",
"                        &---------------->4e-                   ",
"                                         -3e-                   ",
"                                         -3e-                   ",
"                                         -3e-                   ",
"                                         -3e-                   ",
"                                         -3e-                   ",
"                                         -3e-                   ",
"                                         -3e-                   ",
"                                         -3e-                   ",
"                          &--------------,6f-                   ",
"                         &13343444443434378p:                   ",
"                         &ueeeeeeeeeeeeeed9p:                   ",
"                          &--------------,6f-                   ",
"                                         -4e-                   ",
"                                         -4e-                   ",
"                                         -4e-                   ",
"                                         -4e-                   ",
"                                         -3e-                   ",
"                                         -3e-                   ",
"                                         -3r-                   ",
"                                         -3e-                   ",
"                                         -3e-                   ",
"                                         -3e-                   ",
"                      $&----------------->4e-                   ",
"                     $-iteeeeeeeeeeeeeeeehde-                   ",
"                     $-,24343434343434343431&                   ",
"                      $&-------------------&                    ",
"                                                                ",
"                                                                ",
"                                                                ",
"                                                                ",
"                                                                ",
"                                                                ",
"                                                                ",
"                                                                ",
"                                                                ",
"                                                                ",
"                                                                ",
"                                                                ",
"                                                                ",
"                                                                ",
"                                                                "
};
