/* XPM */
static char *_0355d4ba7f04775edf429503dfd2a010BdZahm6YiUgz740[] = {
/* columns rows colors chars-per-pixel */
"64 64 67 1 ",
"  c black",
". c #010000",
"X c #000100",
"o c #010101",
"O c #000201",
"+ c #000002",
"@ c #010002",
"# c #030002",
"$ c #020003",
"% c #030004",
"& c #040005",
"* c #060005",
"= c #070005",
"- c #060007",
"; c #070007",
": c #0B000C",
"> c #0E000E",
", c #0F0010",
"< c #110010",
"1 c #120011",
"2 c #120012",
"3 c #120013",
"4 c #140012",
"5 c #140013",
"6 c #150013",
"7 c #150015",
"8 c #160014",
"9 c #160016",
"0 c #180017",
"q c #190019",
"w c #1B0019",
"e c #1D001E",
"r c #1F001E",
"t c #230023",
"y c #270027",
"u c #290027",
"i c #2A002B",
"p c #2D002B",
"a c #2D002C",
"s c #30002E",
"d c #310032",
"f c #320033",
"g c #380037",
"h c #390037",
"j c #390038",
"k c #380039",
"l c #390039",
"z c #3F003E",
"x c #490049",
"c c #570057",
"v c #A93CA7",
"b c #A83DA7",
"n c #AB3BAB",
"m c #AF38AE",
"M c #B633B5",
"N c #8B4F8B",
"B c #8C508C",
"V c #934C92",
"C c #934B94",
"Z c #994897",
"A c #9A469B",
"S c #A0439E",
"D c #A142A0",
"F c #A141A2",
"G c #A241A2",
"H c #A242A3",
"J c #A440A3",
/* pixels */
"                                                                ",
"                                                                ",
"                                                                ",
"                                                                ",
"                                                                ",
"                                                                ",
"                                                                ",
"                                                                ",
"                                                                ",
"                                                                ",
"                                                                ",
"                                                                ",
"                                                                ",
"                                                                ",
"                                                                ",
"                                                                ",
"                                                                ",
"                                                                ",
"                                                                ",
"                       *>>*                 *:3>*               ",
"                       >Ci>                *7tAi>               ",
"                       3Fk3               *3rZng6               ",
"                       3Fk3              *7rBsnk6               ",
"                       3Fk3             *3rBrubg6               ",
"                       3Fk3            *7rBr3qJg6               ",
"                       3Fk3           *3rBr7*3Fg6               ",
"                       3Fk3          *7rBr3* 3Fg6               ",
"                       3Fk3         *3rBr7*  6Fg6               ",
"                       3Fk3        *7rBr,*   6Fg6               ",
"                       3Fk3       *,rBr7*    6Fg6               ",
"                       3Fk3      *7rBr3*     6Fg6               ",
"                       3Fk3     *3rBr7*      3Fg6               ",
"                       3Fk3    *7rBr,*       3Fg6               ",
"                       3Fk3   *3rBr7*        3Fg6               ",
"                       3Fk3  *7rBr3*         3Fg6               ",
"                       3Fg3%*3rBr7*          3Fg6               ",
"                       3Fg3*7rBr3*           3Fg6               ",
"                       3Fkq3rBr7*            3Fg6               ",
"                       3FzyrNr3*             3Fg6               ",
"                       7bxfBr7*              3Fk6               ",
"                       qMcSr3*               3Fk6               ",
"                       0mMa7*                3Af3               ",
"                       >Vp7*                 :Bt:               ",
"                       *76*                  *77*               ",
"                        **                    **                ",
"                                                                ",
"                                                                ",
"                                                                ",
"                                                                ",
"                                                                ",
"                                                                ",
"                                                                ",
"                                                                ",
"                                                                ",
"                                                                ",
"                                                                ",
"                                                                ",
"                                                                ",
"                                                                ",
"                                                                ",
"                                                                ",
"                                                                ",
"                                                                ",
"                                                                "
};
