/* XPM */
static char *_e1d1de9eb8442d4d2f9727dd8a11717ATKxnFTFaQva0gZw[] = {
/* columns rows colors chars-per-pixel */
"64 64 35 1 ",
"  c black",
". c #010000",
"X c #000100",
"o c #010100",
"O c #010101",
"+ c #010300",
"@ c #030200",
"# c #030300",
"$ c #000002",
"% c #040300",
"& c #030400",
"* c #040400",
"= c #060600",
"- c #070600",
"; c #070700",
": c #080800",
"> c #0A0900",
", c #0B0A00",
"< c #0B0B00",
"1 c #0D0B00",
"2 c #0A0C00",
"3 c #F0EF79",
"4 c #F0F078",
"5 c #EFED86",
"6 c #EDEE86",
"7 c #EDED8B",
"8 c #ECEC8C",
"9 c #EDED8D",
"0 c #EDEC8F",
"q c #EDEC90",
"w c #ECED90",
"e c #EBEA97",
"r c #ECEB98",
"t c #EAEAA2",
"y c #E8E8AC",
/* pixels */
"                                                                ",
"                                                                ",
"                                                                ",
"                                                                ",
"                                                                ",
"                                                                ",
"                                                                ",
"                                                                ",
"                                                                ",
"                                                                ",
"                                                                ",
"                                                                ",
"                                                                ",
"                         %%&&&%%%%%%%%%                         ",
"                      ;;<<<<<2<<<<<<<<<<                        ",
"                      ;yr999999799999549%                       ",
"                         %%%%%%%%%%%%;19%                       ",
"                                     %<9%                       ",
"                                     %<9%                       ",
"                                     %<9%                       ",
"                                     %<9%                       ",
"                                     %<9%                       ",
"                                     %<9%                       ",
"                                     %<9%                       ",
"                                     %<9%                       ",
"                       %%%%%%%%%%%%%%;19%                       ",
"                      <99999999999999549%                       ",
"                     %<31<<<<<<<<<<<<<<<                        ",
"                     %<5;%%%%%%%%%%%%&&                         ",
"                     %<9%                                       ",
"                     %<7&                                       ",
"                     %<7&                                       ",
"                     %<9%                                       ",
"                     %<9%                                       ",
"                     %<9%                                       ",
"                     %<9%                                       ",
"                     %<9%                                       ",
"                     %<9%                                       ",
"                     %<9%                                       ",
"                      <w;%%%;;%%%%%%%%%                         ",
"                      ;ew99999999999999t                        ",
"                      ;;<<<<<<<<<<<<<<<<                        ",
"                         %%%%%%%%%;;%%%                         ",
"                                                                ",
"                                                                ",
"                                                                ",
"                                                                ",
"                                                                ",
"                                                                ",
"                                                                ",
"                                                                ",
"                                                                ",
"                                                                ",
"                                                                ",
"                                                                ",
"                                                                ",
"                                                                ",
"                                                                ",
"                                                                ",
"                                                                ",
"                                                                ",
"                                                                ",
"                                                                ",
"                                                                "
};
