/* XPM */
static char *_175b8d859754704bc4e1d666c81f9f0LcQIejEQlcMAQ1dW[] = {
/* columns rows colors chars-per-pixel */
"64 64 64 1 ",
"  c black",
". c #010000",
"X c #000100",
"o c #010100",
"O c #010101",
"+ c #020001",
"@ c #000002",
"# c #010002",
"$ c #000102",
"% c #000302",
"& c #000204",
"* c #000304",
"= c #000404",
"- c #000505",
"; c #000605",
": c #000607",
"> c #000707",
", c #000805",
"< c #000809",
"1 c #000909",
"2 c #000A08",
"3 c #000A09",
"4 c #00090B",
"5 c #000A0A",
"6 c #000B0B",
"7 c #000C0B",
"8 c #000A0C",
"9 c #000C0C",
"0 c #000D0C",
"q c #000E0E",
"w c #000F10",
"e c #000F12",
"r c #001010",
"t c #001110",
"y c #001111",
"u c #001212",
"i c #001413",
"p c #001615",
"a c #001817",
"s c #001919",
"d c #001C1C",
"f c #001D1C",
"g c #001F1E",
"h c #001F20",
"j c #002020",
"k c #002423",
"l c #002827",
"z c #56DBDA",
"x c #51DDDC",
"c c #71CFCF",
"v c #75CDCE",
"b c #7BCBCA",
"n c #7BCBCC",
"m c #78CCCC",
"M c #7CCCCD",
"N c #6ED0CF",
"B c #70D0CF",
"V c #67D3D3",
"C c #64D4D5",
"Z c #71D1D0",
"A c #89C5C5",
"S c #88C6C5",
"D c #89C5C6",
"F c #8DC5C6",
/* pixels */
"                                                                ",
"                                                                ",
"                                                                ",
"                                                                ",
"                                                                ",
"                                                                ",
"                                                                ",
"                                                                ",
"                                                                ",
"                                                                ",
"                                                                ",
"                                                                ",
"                                                                ",
"                                                                ",
"                                                                ",
"                                                                ",
"                                                                ",
"                                                                ",
"                                                                ",
"                                                                ",
"                                                                ",
"                    **              **                          ",
"                   ;66;            ;66;                         ",
"                   ;Au;            ;Au;                         ",
"                   6ms6            6ms6                         ",
"                   6Bf6            6Bf6                         ",
"                   6Bf6            6Bf6                         ",
"                   6Bf6            6Bf6                         ",
"                   6Bf6            6Bf6                         ",
"                   6Bf6            6Bf6                         ",
"                   6Bf6            6Bf6                         ",
"                   6Bf6            6Bf6                         ",
"                   6Bf6            6Bf6                         ",
"                   6Bf6     ;;     6Zf6                         ",
"                   6Bf6    ;66;    6Bf6                         ",
"                   6Bf6   ;qFw6;   6Bf6                         ",
"                   6Bf6  ;pvpAw6;  6Bf6                         ",
"                   6Bf6*;qMsuwAw6; 6Bf6                         ",
"                   6Bf6;pbq6;6wAw8;6cf6                         ",
"                   6Bfuqbp;  ;6wAw6qNf6                         ",
"                   6Bkhnq;    ;6uAwiVf6                         ",
"                   6VlVp;      ;7uAaCf6                         ",
"                   qzxi;        ;6wbCf6                         ",
"                   6Vj6          ;6ump;                         ",
"                   ;6q;           ;;6,                          ",
"                                                                ",
"                                                                ",
"                                                                ",
"                                                                ",
"                                                                ",
"                                                                ",
"                                                                ",
"                                                                ",
"                                                                ",
"                                                                ",
"                                                                ",
"                                                                ",
"                                                                ",
"                                                                ",
"                                                                ",
"                                                                ",
"                                                                ",
"                                                                ",
"                                                                "
};
